!!!COM: Bach, Johann Sebastian
!!!CDT: 1685/3//-1750/7/28/
!!!OTL@@DE: Ich dank' dir, lieber Herre
!!!OTL@EN:  I thank Thee, dear Lord
!!!AGN: 4-Part Chorale
!!!SCT: BH 002
!!!SCT: BWV 347
**harm	**root	**kern	**kern	**kern	**kern
*	*Iorgan	*Iorgan	*Iorgan	*Iorgan	*Iorgan
!	!	!bass	!tenor	!alto	!sprno
*	*	*clefF4	*clefF4	*clefG2	*clefG2
*k[]	*k[]	*k[]	*k[]	*k[]	*k[]
*G#:	*G#:	*G#:	*G#:	*G#:	*G#:
*met(c)	*met(c)	*met(c)	*met(c)	*met(c)	*met(c)
*M4/4	*M4/4	*M4/4	*M4/4	*M4/4	*M4/4
*MM60	*MM60	*MM60	*MM60	*MM60	*MM60
*>[A,A,B]	*>[A,A,B]	*>[A,A,B]	*>[A,A,B]	*>[A,A,B]	*>[A,A,B]
*>A	*>A	*>A	*>A	*>A	*>A
I	4AA	8G#	4B#	4d#	4g#
.	.	8F##	.	.	.
=1	=1	=1	=1	=1	=1
vi	4FF#	4E#	4B#	4e#	4g#
Ib	4AA	4BB#	8B#	4d#	4g#
.	.	.	8A#	.	.
IV	4DD	4C#	8G#	4e#	4g#
.	.	.	8F##	.	.
Vb/V	4BB	4C##	4E#	4e#	4a#
=2	=2	=2	=2	=2	=2
v	4EE	4D#	4.A#	4d#	4f#
V7/V	4BB	4AA#	.	4c##	4e#
.	.	.	8G#	.	.
V;	4EE;	4DD#;	4F##y;	4A#;	4d#;
V	4EE	4D#	4d#	4f##y	4a#
=3	=3	=3	=3	=3	=3
I	4AA	4G#	4d#	4g#	4b#
V/V	4BB	4A#	4c##	8f##	4a#
.	.	.	.	8e#	.
Ib	4AA	4B#	2B#	[2d#	4g#
V7c/VI	8CC#	8A#	.	.	8f##
vi7b	8FF#	8G#	.	.	8e#
=4	=4	=4	=4	=4	=4
V	4EE	4A#	4.A#	4d#]	4f##
V7/V	4BB	4AA#	.	4c##	4e#
.	.	.	8G#	.	.
V;	4EE;	4D#;	4F##;	4A#;	4d#;
=:|!	=:|!	=:|!	=:|!	=:|!	=:|!
*>B	*>B	*>B	*>B	*>B	*>B
iii	4CC#	4BB#	4F##	8b#	4dd#
.	.	.	.	8a#	.
=5	=5	=5	=5	=5	=5
IVb	4DD	8E#	8G#	4g#	4cc#
.	.	8F##	8A#	.	.
I	4AA	4G#	8B#	4g#	4b#
.	.	.	8c#	.	.
V	4EE	4D#	4d#	4f##	4a#
Ib	8AA	8BB#	4d#	8g#	4g#
V7/IV	8AA	8GG#	.	8f#	.
=6	=6	=6	=6	=6	=6
IV	4DD	4C#	4c#	8e#	8g#
.	.	.	.	8f##y	8a#
Ib	4AA	8BB#	4d#	4g#	4b#
.	.	8C#	.	.	.
V;	4EE;	4D#;	4d#;	4f##;	4a#;
viio/II	4AA#	4BB#	4d#	4g##	4b#
!!linebreak: 2
=7	=7	=7	=7	=7	=7
ii	8BB	4AA#	8e#	8a#	4cc#
ii7	8BB	.	4A#	8g#	.
viiD7b/II	4AA#	4BB#	.	4f#	4b#
.	.	.	8G##	.	.
iib	8BB	8C#	4A#	8e#	4a#
v	8EE	8F#	.	8d#	.
V/II	4FF#	4E#	4B#	4e#	4g##
=8	=8	=8	=8	=8	=8
ii;	2.BB;	2.AA#;	2.c#;	2.e#;	2.a#;
iii	4CC#	4BB#	4F##	8d#	4d#
.	.	.	.	8c#	.
=9	=9	=9	=9	=9	=9
vi	4FF#	4E#	4G#	4B#	4g#
V7	8EE	8D#	8F##	4c#	4a#
iib	8BB	8C#	8E#	.	.
iii	4CC#	4BB#	8D#	4d#	4b#
.	.	.	8d#	.	.
ii	8BB	4AA#	4c#	8e#	4cc#
viiob	8GG#	.	.	8f##	.
=10	=10	=10	=10	=10	=10
I	4AA	8GG#	8B#	2g#	4dd#
.	.	8AA#	8c#	.	.
I9b	8AA	8BB#	8d#	.	8cc#
IV7	8DD	8C#	8e#	.	8b#
V;	4EE;	4D#;	4f##;	4d#;	4a#;
ii	4BB	4AA#	4e#	4a#	4cc#
=11	=11	=11	=11	=11	=11
vi	8FF#	8E#	8e#	8g#	4b#
iiic	8CC#	8F##	8d#	8f##	.
ii7d	4BB	4G#	8c#	4e#	4a#
.	.	.	8B#	.	.
Vb	4EE	8F##	4A#	4d#	4.dd#
.	.	8D#	.	.	.
vi7b	8FF#	[4G#	8B#	8e#	.
viioc	8GG#	.	8c#	8f##	8cc#
=12	=12	=12	=12	=12	=12
I	4AA	8G#]	4.d#	2g#	8b#
.	.	8F##	.	.	8a#
ii7c	4BB	4E#	.	.	8g#
.	.	.	8c#	.	8a#
Ic	8AA	8D#	8B#	4g#	4b#
IV7	8DD	8C#	8e#	.	.
V	4EE	4D#	8A#	4f##	4a#
.	.	.	16d#	.	.
.	.	.	16c#	.	.
=13	=13	=13	=13	=13	=13
I;	2.AA;	2.GG#;	2.B#;	2.d#;	2.g#;
==	==	==	==	==	==
*-	*-	*-	*-	*-	*-
!!chor2scor: -l 2 -s 0.6 -o %b.pmx
!!!YEC: Copyright 2001 by Craig Stuart Sapp
!!!license: GNU General Public License (http://www.gnu.org/copyleft/gpl.html)
!!!SMA: 371 Bach Chorales, edited by Ludwig Erk, C.F. Peters
!!!PDT: 1850, 1865
!!!ONB: Harmony and Root analysis done manually by Craig Sapp (not proofed yet)
